X:2771
T:Catholic Boy's Jig
M:6/8
L:1/8
K:Am
cEE GEE|cEE GAB|cEE GED|EAA A2 B|!
cEE GEE|cEE GAB|cBc AGD|EAA A2 A:|!
|:A2 g g_g=g|ecc cBc|eaa aba|edd dcd|!
A2 g g_g=g|ecc cde|fed cAG|EAA A3:|!


